X:1
T:Title
%%score { ( 1 3 ) | ( 2 4 ) }
L:1/8
M:4/4
K:Ab
V:1 treble nm="Grand Piano"
V:3 treble 
V:2 bass 
V:4 bass 
V:1
 z4 z2[Q:1/4=100] [Ac][Ac] |[M:3/4] [Ac]2 [GB]2 [Bd][Bd] | [Bd]2 [Ac]2 [ce][ce] | %3
 [ce][Bd] [Ac]2 [GB]2 |[M:2/4] [Bd]2 [Ac]2 |[M:1/4] [Ac][Ac] |[M:3/4] [Ac]2 [GB]2 [Bd][Bd] | %7
 [Bd]2 [Ac]2 [ce][ce] | [ce][Bd] [Ac]2 [GB]2 |[M:2/4] [GB]2 A2 |[M:1/4] [GB][Be] | %11
[M:3/4] [Be]2 [B=d]2 [Bd][Bf] | [Bf]2 [Be]2 [Be][eg] | [cg][cf] [Be]2 [B=d]2 |[M:2/4] f2 z2 | %15
[M:1/4] [Ac][Ac] |[M:3/4] [Ac]2 [GB]2 [Bd][Bd] | [Bd]2 [Ac]2 [ce][ce] | [ce][Bd] [Ac]2 [GB]2 | %19
[M:6/4] [GB]2 .A4 z6 |] %20
V:2
 z4 z2 [A,,E,][A,,E,] |[M:3/4] E,2 E,2 E,E, | [A,,E,]2 [A,,E,]2 [A,,A,][A,,A,] | %3
 [D,F,][D,F,] E,2 E,2 |[M:2/4] [A,,E,]2 [A,,E,]2 |[M:1/4] [A,,E,][A,,E,] |[M:3/4] E,2 E,2 E,E, | %7
 [A,,E,]2 [A,,E,]2 [A,,A,][A,,A,] | [D,F,][D,F,] E,2 E,2 |[M:2/4] [A,,D,]2 [A,,C,]2 | %10
[M:1/4] [E,G,][E,G,] |[M:3/4] [B,,G,]2 [B,,F,]2 [B,,F,][F,,A,] | [E,A,]2 [E,G,]2 [G,B,][G,_C] | %13
 [A,C][A,,A,] [B,,G,]2 [B,,F,]2 |[M:2/4] A,2 z2 |[M:1/4] [A,,E,][A,,E,] |[M:3/4] E,2 E,2 E,E, | %17
 [A,,E,]2 [A,,E,]2 [A,,A,][A,,A,] | [D,F,][D,F,] E,2 E,2 |[M:6/4] [A,,D,]2 .[A,,C,]4 z6 |] %20
V:3
 x8 |[M:3/4] x6 | x6 | x6 |[M:2/4] x4 |[M:1/4] x2 |[M:3/4] x6 | x6 | x6 |[M:2/4] x4 |[M:1/4] x2 | %11
[M:3/4] x6 | x6 | x6 |[M:2/4] B2- [Be]2 |[M:1/4] x2 |[M:3/4] x6 | x6 | x6 |[M:6/4] x12 |] %20
V:4
 x8 |[M:3/4] x6 | x6 | x6 |[M:2/4] x4 |[M:1/4] x2 |[M:3/4] x6 | x6 | x6 |[M:2/4] x4 |[M:1/4] x2 | %11
[M:3/4] x6 | x6 | x6 |[M:2/4] E,2- [E,G,]2 |[M:1/4] x2 |[M:3/4] x6 | x6 | x6 |[M:6/4] x12 |] %20

